www/assets/icons/roundabout_right.svg

<svg xmlns="http://www.w3.org/2000/svg" width="24" height="24" viewBox="0 0 24 24" fill='currentColor'><path d="M13.92 8C13.44 5.16 10.97 3 8 3 4.69 3 2 5.69 2 9c0 2.97 2.16 5.44 5 5.92V21h2v-6.09c0-.98-.71-1.8-1.67-1.97a3.999 3.999 0 1 1 4.61-4.61c.17.96.99 1.67 1.97 1.67h4.26l-1.59 1.59L18 13l4-4-4-4-1.41 1.41L18.17 8z"/></svg>

<svg width="24" height="24" viewBox="0 0 24 24" xmlns="http://www.w3.org/2000/svg" fill='currentColor'><path d="M13.92 8C13.44 5.16 10.97 3 8 3C4.69 3 2 5.69 2 9C2 11.97 4.16 14.44 7 14.92V21H9V14.91C9 13.93 8.29 13.11 7.33 12.94C5.44 12.63 4 10.98 4 9C4 6.79 5.79 5 8 5C9.98 5 11.63 6.44 11.94 8.33C12.11 9.29 12.93 10 13.91 10H18.17L16.58 11.59L18 13L22 9L18 5L16.59 6.41L18.17 8H13.92Z"/></svg>
